packages/elvis-assets-icons/icons/svg/src/phone_comment-color.svg

<svg width="24" height="24" viewBox="0 0 24 24" fill="none" xmlns="http://www.w3.org/2000/svg">
<path d="M3.483 23.9983C1.563 23.9983 0.001 22.4363 0 20.5173V4.98128C0.001 3.06128 1.563 1.49928 3.483 1.49828H6C6.414 1.49828 6.75 1.83428 6.75 2.24828C6.75 2.66228 6.414 2.99828 6 2.99828H3.483C2.39 2.99828 1.5 3.88828 1.5 4.98128V17.9983H12V14.2483C12 13.8343 12.336 13.4983 12.75 13.4983C13.164 13.4983 13.5 13.8343 13.5 14.2483V20.5163C13.5 22.4363 11.938 23.9983 10.018 23.9983H3.483ZM1.5 20.5163C1.5 21.6093 2.39 22.4983 3.483 22.4983H10.018C11.111 22.4983 12 21.6093 12 20.5163V19.4983H1.5V20.5163Z" fill="black"/>
<path d="M15.75 15.75C15.651 15.75 15.554 15.731 15.462 15.693C15.182 15.576 15 15.304 15 15V12H12C9.932 12 8.25 10.318 8.25 8.25V3.75C8.25 1.682 9.932 0 12 0H20.25C22.318 0 24 1.682 24 3.75V8.25C24 10.318 22.318 12 20.25 12H19.811L16.281 15.53C16.139 15.672 15.95 15.75 15.75 15.75ZM12 1.5C10.759 1.5 9.75 2.509 9.75 3.75V8.25C9.75 9.491 10.759 10.5 12 10.5H15.75C16.164 10.5 16.5 10.836 16.5 11.25V13.189L18.97 10.719C19.11 10.579 19.303 10.499 19.5 10.499H20.25C21.491 10.499 22.5 9.49 22.5 8.249V3.749C22.5 2.508 21.491 1.499 20.25 1.499H12V1.5Z" fill="black"/>
<path d="M12.375 7.125C11.755 7.125 11.25 6.62 11.25 6C11.25 5.393 11.726 4.9 12.334 4.878C12.339 4.877 12.358 4.877 12.376 4.877C12.384 4.877 12.411 4.878 12.419 4.878C13.02 4.896 13.5 5.389 13.5 6C13.5 6.62 12.995 7.125 12.375 7.125Z" fill="#29D305"/>
<path d="M16.125 7.125C15.505 7.125 15 6.62 15 6C15 5.393 15.476 4.9 16.084 4.878C16.089 4.877 16.108 4.877 16.126 4.877C16.134 4.877 16.161 4.878 16.169 4.878C16.77 4.896 17.25 5.389 17.25 6C17.25 6.62 16.745 7.125 16.125 7.125Z" fill="#29D305"/>
<path d="M19.875 7.125C20.4963 7.125 21 6.62132 21 6C21 5.37868 20.4963 4.875 19.875 4.875C19.2537 4.875 18.75 5.37868 18.75 6C18.75 6.62132 19.2537 7.125 19.875 7.125Z" fill="#29D305"/>
</svg>

<svg width="24" height="24" fill="none" xmlns="http://www.w3.org/2000/svg"><path d="M3.483 23.998A3.487 3.487 0 010 20.518V4.98a3.489 3.489 0 013.483-3.483H6a.75.75 0 010 1.5H3.483c-1.093 0-1.983.89-1.983 1.983v13.017H12v-3.75a.75.75 0 011.5 0v6.268a3.486 3.486 0 01-3.482 3.482H3.483zM1.5 20.516c0 1.093.89 1.982 1.983 1.982h6.535A1.984 1.984 0 0012 20.516v-1.018H1.5v1.018z" fill="#000"/><path d="M15.75 15.75A.75.75 0 0115 15v-3h-3a3.754 3.754 0 01-3.75-3.75v-4.5A3.754 3.754 0 0112 0h8.25A3.754 3.754 0 0124 3.75v4.5A3.754 3.754 0 0120.25 12h-.439l-3.53 3.53a.747.747 0 01-.531.22zM12 1.5a2.252 2.252 0 00-2.25 2.25v4.5A2.252 2.252 0 0012 10.5h3.75a.75.75 0 01.75.75v1.939l2.47-2.47c.14-.14.333-.22.53-.22h.75a2.252 2.252 0 002.25-2.25v-4.5a2.252 2.252 0 00-2.25-2.25H12V1.5z" fill="#000"/><path d="M12.375 7.125c-.62 0-1.125-.505-1.125-1.125 0-.607.476-1.1 1.084-1.122l.042-.001.043.001A1.117 1.117 0 0113.5 6c0 .62-.505 1.125-1.125 1.125zM16.125 7.125C15.505 7.125 15 6.62 15 6c0-.607.476-1.1 1.084-1.122l.042-.001.043.001A1.117 1.117 0 0117.25 6c0 .62-.505 1.125-1.125 1.125zM19.875 7.125a1.125 1.125 0 100-2.25 1.125 1.125 0 000 2.25z" fill="#29D305"/></svg>
